Obsidian-SemiLight/actions/16s/zoom-previous.svg

<svg viewBox="0 0 16 16" xmlns="http://www.w3.org/2000/svg"><path d="m2 2v3h1v-2h2v-1h-2zm9 0v1h2v2h1v-3h-1zm-1.9394531 3.171875-.9492188.9492188-1.8789062 1.8789062 1.8789062 1.8789062.9492188.9492188.7070312-.707031-.9492187-.949219-1.171875-1.171875 1.171875-1.171875.9492187-.9492188zm-7.0605469 5.828125v3h1 2v-1h-2v-2zm11 0v2h-2v1h3v-1-2z" fill="#4d4d4d"/></svg>

<svg xmlns="http://www.w3.org/2000/svg" viewBox="0 0 16 16">
  <defs id="defs3051">
    <style type="text/css" id="current-color-scheme">
      .ColorScheme-Text {
        color:#4d4d4d;
      }
      </style>
  </defs>
 <path style="fill:currentColor;fill-opacity:1;stroke:none" 
       d="M 2 2 L 2 5 L 3 5 L 3 3 L 5 3 L 5 2 L 3 2 L 2 2 z M 11 2 L 11 3 L 13 3 L 13 5 L 14 5 L 14 2 L 13 2 L 11 2 z M 9.0605469 5.171875 L 8.1113281 6.1210938 L 6.2324219 8 L 8.1113281 9.8789062 L 9.0605469 10.828125 L 9.7675781 10.121094 L 8.8183594 9.171875 L 7.6464844 8 L 8.8183594 6.828125 L 9.7675781 5.8789062 L 9.0605469 5.171875 z M 2 11 L 2 14 L 3 14 L 5 14 L 5 13 L 3 13 L 3 11 L 2 11 z M 13 11 L 13 13 L 11 13 L 11 14 L 14 14 L 14 13 L 14 11 L 13 11 z "
     class="ColorScheme-Text"
     />
</svg>
